!!!!SEGMENT: Fsc2007-Deduc_me_Domine.krn
!!!id: Fsc2007
!!!AGN: Motet
!!!SCT: Seay (1979)
!!!voices: 4
!!!COM: Costanzo Festa
!!!OTL: Deduc me, Domine
**kern	**kern	**kern	**kern
*part4	*part3	*part2	*part1
*staff4	*staff3	*staff2	*staff1
*I"Bassus	*I"Tenor	*I"Altus	*I"Superius
*I'B	*I'T	*I'A	*I'S
*clefF4	*clefGv2	*clefGv2	*clefG2
*k[]	*k[]	*k[]	*k[]
*C:	*C:	*C:	*C:
*M2/1	*M2/1	*M2/1	*M2/1
*met(C|)	*met(C|)	*met(C|)	*met(C|)
!!section: Prima pars: Deduc me, Domine
!!!OMD: Prima pars: Deduc me, Domine
=1	=1	=1	=1
1AA	0r	0r	0r
[1C	.	.	.
=2	=2	=2	=2
1C]	0r	0r	0r
1BB	.	.	.
=3	=3	=3	=3
0C	1E	0r	0r
.	[1G	.	.
=4	=4	=4	=4
1BB	1G]	0r	0r
1AA	1F	.	.
=5	=5	=5	=5
2r	0G	1B	0r
2.GG	.	.	.
.	.	[1d	.
4AA	.	.	.
4BB	.	.	.
4C	.	.	.
=6	=6	=6	=6
2.D	1F	1d]	1r
4C	.	.	.
2AA	1E	1c	1e
2C	.	.	.
=7	=7	=7	=7
0GG	2r	0d	0g
.	1B	.	.
.	4A	.	.
.	4G	.	.
=8	=8	=8	=8
1r	1A	1c	1f
2r	2.G	1B	[1g
[2G	.	.	.
.	4A	.	.
=9	=9	=9	=9
2G]	2B	1r	1g]
4F	1c	.	.
4E	.	.	.
1D	.	1A	1f
.	2F	.	.
=10	=10	=10	=10
2C	2G	0c	[0e
2.AA	1A	.	.
4BB	.	.	.
4C	4G	.	.
4D	4F	.	.
=11	=11	=11	=11
1E	1G	1B	0e_
2r	2C	[1c	.
2AA	[2c	.	.
=12	=12	=12	=12
2C	4c]	1c]	0e_
.	4B	.	.
2D	1A	.	.
1E	.	1B	.
.	2G#i	.	.
=13	=13	=13	=13
0AA;	0c;	0A;	0e;]
=14	=14	=14	=14
0r	0e	0r	0r
=15	=15	=15	=15
1r	1d	0r	0r
[1A	1e	.	.
=16	=16	=16	=16
1A]	1.e	0r	0r
1G	.	.	.
.	2e	.	.
=17	=17	=17	=17
1A	2e	0r	0r
.	2e	.	.
2.A	[1e	.	.
4A	.	.	.
=18	=18	=18	=18
2G	2e]	0r	0r
2A	2e	.	.
2E	1e	.	.
2A	.	.	.
=19	=19	=19	=19
2G	1e	0r	0r
1c	.	.	.
.	2e	.	.
[2A	2e	.	.
=20	=20	=20	=20
2A]	2e	0r	0r
2G	2e	.	.
2A	2e	.	.
2E	2e	.	.
=21	=21	=21	=21
2G	1e	0r	0r
2A	.	.	.
2D	1d	.	.
[2G	.	.	.
=22	=22	=22	=22
2G]	2e	1r	0r
2.A	2.f	.	.
.	.	2r	.
4G	4e	.	.
4F	[2e	[2A	.
4E	.	.	.
=23	=23	=23	=23
2F	2e]	2A]	1r
2G	2d	2B	.
2C	[1e	1c	2r
2AA	.	.	[2a
=24	=24	=24	=24
1E	0e_	1B	2a]
.	.	.	2g
1AA	.	4A	1cc
.	.	4B	.
.	.	4c	.
.	.	4d	.
=25	=25	=25	=25
0r	1e]	4e	1b
.	.	4f	.
.	.	1g	.
.	1r	.	1a
.	.	2f	.
=26	=26	=26	=26
2r	0r	2e	2g
1D	.	2.A	1f
.	.	4B	.
2C	.	[2c	[2e
=27	=27	=27	=27
1F	2r	2c]	2e]
.	1A	4B	2d
.	.	4A	.
1E	.	1B	1e
.	2G	.	.
=28	=28	=28	=28
1AA	1c	1A	2r
.	.	.	1a
1E	1B	1r	.
.	.	.	2g
=29	=29	=29	=29
2r	2A	2r	1cc
2AA	1e	1A	.
1E	.	.	1b
.	[2E	2G	.
=30	=30	=30	=30
1AA	2E]	1c	1a
.	1e	.	.
2E	.	2B	2g
[2F	4d	[2A	[2f
.	4c	.	.
=31	=31	=31	=31
2F]	4d	2A]	2f]
.	4c	.	.
2C	1c	2G	1e
1D	.	1F	.
.	2B	.	2d
=32	=32	=32	=32
1AA	1c	1A	[0e
1r	2A	2r	.
.	[2c	2E	.
=33	=33	=33	=33
1AA	2c]	1A	0e]
.	4B	.	.
.	4A	.	.
[1E	1B	2.G	.
.	.	4A	.
=34	=34	=34	=34
2E]	1G	2B	0r
2C	.	2c	.
2D	1r	2A	.
2C	.	[2c	.
=35	=35	=35	=35
1F	1A	2c]	1a
.	.	4B	.
.	.	4A	.
1E	[1e	4B	[1g
.	.	4A	.
.	.	4G	.
.	.	4F	.
=36	=36	=36	=36
0r	2e]	2E	2g]
.	2c	2A	2e
.	2d	2D	2f
.	2c	2A	2e
=37	=37	=37	=37
1D	1f	2r	1d
.	.	2.A	.
[1A	1e	.	2c
.	.	4B	.
.	.	4c	[2cc
.	.	4d	.
=38	=38	=38	=38
2A]	2r	2e	4cc]
.	.	.	4a
2F	2A	2f	2cc
2G	2B	2d	2b
2F	2c	[2f	[2a
=39	=39	=39	=39
1B-i	1d	2f]	2a]
.	.	4e	2g
.	.	4d	.
[1A	[1e	[1c	[1a
=40	=40	=40	=40
0A]	1e]	0c_	0a_
.	2r	.	.
.	[2e	.	.
=41	=41	=41	=41
2r	2e]	1c]	1a]
1A	2A	.	.
.	2c	1r	1r
2D	[2A	.	.
=42	=42	=42	=42
2.F	2A]	0r	1r
.	2c	.	.
4E	.	.	.
2D	2B	.	2r
2C	[2A	.	2cc
=43	=43	=43	=43
1BB	2A]	1r	1dd
.	2G#i	.	.
[1AA	[1A	2r	1cc
.	.	2e	.
=44	=44	=44	=44
1AA]	1A]	2e	2a
.	.	2A	2.cc
2r	2r	2.c	.
.	.	.	4b
[2c	[2F	.	4a
.	.	4B	4g
=45	=45	=45	=45
2c]	2F]	2A	2f
1B	2G	2G	1e
.	1A	1F	.
[2A	.	.	2d
=46	=46	=46	=46
2A]	1B	1E	0e
2G#i	.	.	.
2A	1c	2r	.
[2AA	.	[2c	.
=47	=47	=47	=47
2AA]	2e	2c]	0r
2AA	2e	2c	.
2D	2.f	2A	.
2C	.	2c	.
.	4e	.	.
=48	=48	=48	=48
1D	2d	2B	1r
.	2c	1A	.
1E	1B	.	1b
.	.	2G#i	.
=49	=49	=49	=49
1AA	2.A	2A	2.cc
.	.	2.c	.
.	4G	.	4b
2r	2F	.	2a
.	.	4B	.
2C	2E	2c	2g
=50	=50	=50	=50
2D	2D	2A	1f
2D	2F	2B	.
2C	2G	2c	1e
2AA	[2A	2C	.
=51	=51	=51	=51
1BB	2A]	1D	2r
.	2G#i	.	2b
1AA	2A	2.E	2.cc
.	[2c	.	.
.	.	8DL	4b
.	.	8EJ	.
=52	=52	=52	=52
2r	4c]	2F	2a
.	4B	.	.
2C	2c	2E	2g
2D	2A	2D	1f
2D	2B	2F	.
=53	=53	=53	=53
2C	2c	2G	2e
2AA	1F	1A	2c
1BB-X	.	.	2d
.	4E	2G	2d
.	4D	.	.
=54	=54	=54	=54
1AA	[0E	1A	2c
.	.	.	2A
1r	.	2r	1B
.	.	2G	.
=55	=55	=55	=55
1AA	0E]	2A	2A
.	.	2A	2.c
[1C	.	[1G	.
.	.	.	4d
.	.	.	[2e
=56	=56	=56	=56
1C]	0r	2G]	2e]
.	.	2E	4d
.	.	.	4c
1BB-X	.	1F	1d
=57	=57	=57	=57
1r	1E	0E	0e
1C	[1G	.	.
=58	=58	=58	=58
1C	1G]	1r	0r
1D	1E	1A	.
=59	=59	=59	=59
1AA	1r	0c	1e
1r	1C	.	[1g
=60	=60	=60	=60
1GG	1G	1B	1g]
1D	2r	1r	[1f
.	2D	.	.
=61	=61	=61	=61
1D	2F	1A	1f]
.	2F	.	.
2D	2F	2B	1r
[2D	[2F	2A	.
=62	=62	=62	=62
4D]	4F]	1A	0r
4D	4F	.	.
2D	2F	.	.
2D	2F	2B	.
2E	2G	2B	.
=63	=63	=63	=63
2C	2G	2c	0r
1F	1A	1d	.
2C	2G	2c	.
=64	=64	=64	=64
1D	1F	1A	0d
1GG	[1G	1B	.
=65	=65	=65	=65
2r	1G]	2r	1d
1GG	.	1B	.
.	2r	.	[1d
2GG	[2G	2B	.
=66	=66	=66	=66
1GG	2G]	1B	1d]
.	2G	.	.
1C	2G	1c	1e
.	2G	.	.
=67	=67	=67	=67
1.D	1.d	1.A	1.f
2E	2B	2G#i	2e
=68	=68	=68	=68
1E	1B	1G#X	1e
2r	2r	2r	2r
[2AA	[2c	[2E	[2a
=69	=69	=69	=69
2AA]	2c]	2E]	2a]
2AA	2c	2E	2a
2D	2A	2F	2a
2GG	2G	2D	2b
=70	=70	=70	=70
1.C	1.G	1.E	1.cc
2GG	2G	2D	2b
=71	=71	=71	=71
[0GG	[0G	0D	[0b
=72	=72	=72	=72
0GG]	0G]	1r	1b]
.	.	1d	1r
=73	=73	=73	=73
1r	0r	1e	1g
1D	.	1d	1a
=74	=74	=74	=74
1E	1G	1r	1g
1D	1A	1d	1r
=75	=75	=75	=75
1r	1G	1e	1g
1D	1r	1d	1a
=76	=76	=76	=76
1E	1G	2r	1g
.	.	1g	.
1D	1A	.	2r
.	.	2f	[2dd
=77	=77	=77	=77
0r	1G	2d	2dd]
.	.	1e	2b
.	1c	.	2g
.	.	2c	[2a
=78	=78	=78	=78
0r	2B	1d	2a]
.	2G	.	2g
.	1A	2r	2e
.	.	2c	[2f
=79	=79	=79	=79
0r	2G	2B	4f]
.	.	.	4e
.	2E	2G	1e
.	1F	1A	.
.	.	.	2d
=80	=80	=80	=80
0r	1E	2G	1.e
.	.	2E	.
.	1A	1F	.
.	.	.	[2a
=81	=81	=81	=81
1AA	1c	2E	2a]
.	.	1E	1cc
1C	4G	.	.
.	4A	.	.
.	4B	[2G	4g
.	4c	.	4a
=82	=82	=82	=82
1GG	1d	2G]	4b
.	.	.	4cc
.	.	1D	1dd
[1D	2.A	.	.
.	.	[2F	[2d
.	4G	.	.
=83	=83	=83	=83
2D]	4A	2F]	2d]
.	4B	.	.
2C	2c	2E	2e
2D	2A	2D	2f
2BB	2B	2D	2g
=84	=84	=84	=84
2AA	2.c	2E	2.a
1AA	.	2.e	.
.	4d	.	4b
.	2e	.	2cc
.	.	4c	.
2D	2f	2d	[2a
=85	=85	=85	=85
2E	1e	2B	4a]
.	.	.	4g
2C	.	2c	1g
1D	[1d	2A	.
.	.	2A	2f#i
=86	=86	=86	=86
1r	1d]	0G	0g
1E	1r	.	.
=87	=87	=87	=87
1G	1B	0r	0r
2D	1d	.	.
[2F	.	.	.
=88	=88	=88	=88
2F]	2A	0r	0r
2E	1c	.	.
2C	.	.	.
2D	2B	.	.
=89	=89	=89	=89
2E	2G	0r	0r
2F	2A	.	.
2G	2B	.	.
2A	2c	.	.
=90	=90	=90	=90
2B	2d	2r	2r
1c	1e	1g	1cc
2G	2d	2g	[2b
=91	=91	=91	=91
1A	2c	1e	4b]
.	.	.	4a
.	2A	.	1a
1E	1B	1e	.
.	.	.	2g
=92	=92	=92	=92
2r	1A	1.c	2a
1AA	.	.	1e
.	2.A	.	.
2D	.	2d	2f
.	4A	.	.
=93	=93	=93	=93
2C	2c	2e	2g
2F	2c	2f	2a
2C	2c	2e	2g
[2D	[2A	[2d	[2f
=94	=94	=94	=94
2D]	2A]	2d]	2f]
2AA	2A	2c	2e
2D	2A	2d	2f
2GG	2B	2d	2g
=	=	=	=
*M3/1	*M3/1	*M3/1	*M3/1
*met(C|3)	*met(C|3)	*met(C|3)	*met(C|3)
[0.AA	0.A	0.c	0e
.	.	.	1r
=95	=95	=95	=95
0.AA]	0.r	1r	1.e
.	.	1.A	.
.	.	.	2e
.	.	.	1e
.	.	2A	.
=96	=96	=96	=96
0.r	0.r	1A	1f
.	.	1B	1d
.	.	1G	[1g
=97	=97	=97	=97
0.r	0.r	0c	1g]
.	.	.	0e
.	.	[1A	.
=98	=98	=98	=98
0.r	0.r	1A]	0a
.	.	0d	.
.	.	.	1a
=99	=99	=99	=99
0.r	0.r	1d	1b
.	.	1e	1g
.	.	1c	[1cc
=100	=100	=100	=100
1r	0.r	0f	2cc]
.	.	.	2b
1r	.	.	1a
[1E	.	[1e	[1g
=101	=101	=101	=101
2E]	0.r	2e]	2g]
2E	.	2d	2f
1E	.	2c	2e
.	.	2B	2d
1F	.	[1A	1c
=102	=102	=102	=102
1D	0d	1A]	1f
0G	.	0B	1d
.	[1B	.	[1g
=103	=103	=103	=103
0E	1B]	0G	2g]
.	.	.	2a
.	0e	.	2b
.	.	.	2g
[1A	.	[1c	[1a
=104	=104	=104	=104
1A]	0c	1c]	1a]
1A	.	1r	1r
1B	1d	1r	1f
=105	=105	=105	=105
1G	1B	1r	1g
0A	1.c	1A	1.e
.	.	1c	.
.	2d	.	2f
=106	=106	=106	=106
1E	1e	1B	1g
1F	2d	1A	1f
.	1c	.	.
1G	.	1G	1d
.	2B	.	.
=107	=107	=107	=107
0C	0c	0G	0e
1r	1r	1r	1r
=108	=108	=108	=108
0C	0G	0e	0cc
1C	1G	1e	1cc
=109	=109	=109	=109
0D	0F	0d	2a
.	.	.	2g
.	.	.	2a
.	.	.	2b
[1AA	[1C	1e	1cc
=110	=110	=110	=110
1AA]	1C]	1.f	1.a
0BB-X	0D	.	.
.	.	2e	4g
.	.	.	4f
.	.	1d	1g
=	=	=	=
*M2/1	*M2/1	*M2/1	*M2/1
*met(C|)	*met(C|)	*met(C|)	*met(C|)
1AA	1E	0c#X	0a
1A	2r	.	.
.	[2e	.	.
=111	=111	=111	=111
2E	2e]	0r	0r
2G	2B	.	.
2F	2d	.	.
[2A	2c	.	.
=112	=112	=112	=112
2A]	1e	0r	0r
2E	.	.	.
2G	2B	.	.
2F	2d	.	.
=113	=113	=113	=113
0E	2c	2r	2r
.	2B	2e	2g
.	1r	2d	2f
.	.	2c	2e
=114	=114	=114	=114
1r	1r	2d	2f
.	.	2B	2d
2r	2r	1c	[1e
2AA	2A	.	.
=115	=115	=115	=115
2E	2B	0r	1e]
2E	2G	.	.
2E	2B	.	1r
2E	2c	.	.
=116	=116	=116	=116
1F	2d	0r	0r
.	2A	.	.
2E	2c	.	.
[2D	[2B	.	.
=117	=117	=117	=117
2D]	2B]	0r	0r
2C	2.A	.	.
1BB	.	.	.
.	8G#iL	.	.
.	8F#iJ	.	.
.	2G#i	.	.
=118	=118	=118	=118
2AA	2A	2r	2r
2F	2A	2c	2a
2E	2e	2G	2b
2E	2e	2G	2g
=119	=119	=119	=119
2E	2e	2G	2b
2E	2e	2G	2cc
1D	1f	1A	2dd
.	.	.	2a
=120	=120	=120	=120
2E	2e	1G	2cc
1G	1d	.	2.b
.	.	2g	.
.	.	.	4a
2A	2c	2f	[2a
=121	=121	=121	=121
1E	1B	1e	2a]
.	.	.	2g#i
[1AA	[1A	1e	1a
=122	=122	=122	=122
1AA]	1A]	2r	1r
.	.	2.A	.
1r	1r	.	[1a
.	.	4B	.
.	.	4c	.
.	.	4d	.
=123	=123	=123	=123
0r	0r	2c	1a]
.	.	2d	.
.	.	2A	1a
.	.	[2d	.
=124	=124	=124	=124
0r	0r	2d]	0a
.	.	2c	.
.	.	1f	.
=125	=125	=125	=125
0r	0r	1e	1g
.	.	2r	1cc
.	.	2c	.
=126	=126	=126	=126
0r	0r	2d	2b
.	.	2e	2g
.	.	2f	2a
.	.	2d	2b
=127	=127	=127	=127
0r	0r	2A	2cc
.	.	2d	2a
.	.	2c	2e
.	.	2d	2a
=128	=128	=128	=128
0r	0r	2e	2g
.	.	2f	2a
.	.	2d	2b
.	.	2r	2cc
=129	=129	=129	=129
0r	2r	1.f	2a
.	1F	.	1a
.	2C	2e	2g
=130	=130	=130	=130
0r	2D	2d	2f
.	2D	2d	2f
.	[1A	[1c#X	1e
=131	=131	=131	=131
1AA	1A]	1c#]	1r
[1AA	1E	2r	1a
.	.	2c	.
=132	=132	=132	=132
2AA]	2E	2c	2a
2AA	2E	2c	2a
1AA	1E	1c	1a
=133	=133	=133	=133
1FF	1A	1f	1cc
1GG	1G	1d	1b
=134	=134	=134	=134
0AA	1.E	1c	1a
.	.	1r	2r
.	4F	.	2a
.	4G	.	.
=135	=135	=135	=135
2r	1A	1c	2a
2AA	.	.	2a
2AA	2r	2c	2a
2AA	2E	2c	2a
=136	=136	=136	=136
2AA	2E	2c	1cc
2AA	2E	2c	.
1C	2E	2c	1g
.	2E	2c	.
=137	=137	=137	=137
1.FF	2F	1c	2a
.	1A	.	1cc
.	.	2r	.
2GG	2B	2g	[2b
=138	=138	=138	=138
1AA	1c	2e	4b]
.	.	.	4a
.	.	2.f	1a
1BB-X	1d	.	.
.	.	4e	.
.	.	2d	2g
=139	=139	=139	=139
[0AA	[0e	1c#X	1a
.	.	2r	1r
.	.	[2c#i	.
=140	=140	=140	=140
0AA]	1e]	2c#]	1cc
.	.	2A	.
.	2r	2.c	2a
.	[2A	.	[2cc
.	.	4d	.
=141	=141	=141	=141
0r	2A]	2e	4cc]
.	.	.	4b
.	2F	2f	2a
.	2G	2d	2g
.	2D	[2f	2a
=142	=142	=142	=142
0r	1B-X	4f]	1d
.	.	4e	.
.	.	1d	.
.	1A	.	1e
.	.	4c	.
.	.	4B	.
=143	=143	=143	=143
0AA	0A	1c	1r
.	.	2r	1e
.	.	2c	.
=144	=144	=144	=144
1GG	1B	2d	1g
.	.	2e	.
[1FF	[1c	[1f	[1a
=145	=145	=145	=145
1FF]	1c]	1f]	1a]
1C	1c	1e	1g
=146	=146	=146	=146
0D	1A	1d	1f
.	[1d	[1f	1a
=147	=147	=147	=147
1BB-X	1d]	1f]	1b-X
1C	2.c	1e	2a
.	.	.	[2g
.	4B	.	.
=148	=148	=148	=148
0D	2A	0d	2g]
.	2G	.	4f
.	.	.	4e
.	2A	.	1f
.	2D	.	.
=	=	=	=
00AA	00A	00c#X	00e
=||	=||	=||	=||
*M2/1	*M2/1	*M2/1	*M2/1
*met(C|)	*met(C|)	*met(C|)	*met(C|)
!!section: Secunda pars: Et respondebo exprobrachibus
!!!OMD: Secunda pars: Et respondebo exprobrachibus
0r	0r	1A	1r
.	.	[1c	1e
=149	=149	=149	=149
0r	0r	2c]	1.g
.	.	2d	.
.	.	1e	.
.	.	.	2a
=150	=150	=150	=150
0r	0r	1d	1b
.	.	[1f	1a
=151	=151	=151	=151
0r	0r	2f]	1.cc
.	.	2e	.
.	.	2f	.
.	.	2f	2cc
=152	=152	=152	=152
0r	0r	2e	2cc
.	.	2c	2cc
.	.	2d	2b
.	.	2e	2g
=153	=153	=153	=153
0r	0r	2.f	2.a
.	.	8eL	8gL
.	.	8dJ	8fJ
.	.	2e	2g
.	.	[2f	[2a
=154	=154	=154	=154
1r	1r	4f]	4a]
.	.	4e	4g
.	.	1e	4f
.	.	.	4e
2r	2r	.	1f
2D	2A	2d	.
=155	=155	=155	=155
2A	2c	[0e	0e
2G	2B	.	.
1A	1c	.	.
=156	=156	=156	=156
2E	2B	0e]	0r
1A	1c	.	.
2G	2B	.	.
=157	=157	=157	=157
2F	2A	0r	0r
2E	2G	.	.
2.D	2B	.	.
.	[2A	.	.
4C	.	.	.
=158	=158	=158	=158
4D	4A]	0r	0r
4E	4G	.	.
1F	4F	.	.
.	4E	.	.
.	2D	.	.
4E	2d	.	.
4D	.	.	.
=159	=159	=159	=159
2.E	2c	0r	1r
.	2.B	.	.
4D	.	.	.
2C	.	.	1a
.	4A	.	.
2D	[2A	.	.
=160	=160	=160	=160
1BB	4A]	1d	1b
.	4G#i	.	.
.	4G#i	.	.
.	4F#i	.	.
1AA	1A	1e	[1cc
=161	=161	=161	=161
0r	0r	1.f	2cc]
.	.	.	2a
.	.	.	1a
.	.	2d	.
=162	=162	=162	=162
0r	0r	1d	1dd
.	.	1e	2cc
.	.	.	[2b
=163	=163	=163	=163
1D	0r	2d	4b]
.	.	.	4a
.	.	2c	1a
1E	.	1B	.
.	.	.	2g#i
=164	=164	=164	=164
1.F	1r	1A	0a
.	1A	2r	.
2D	.	[2F	.
=165	=165	=165	=165
2D	1B	2F]	0r
1E	.	1G	.
.	[1c	.	.
[2F	.	[2A	.
=166	=166	=166	=166
4F]	2c]	2A]	0r
4G	.	.	.
4A	2A	2.F	.
4B	.	.	.
2c	1A	.	.
.	.	4G	.
[2F	.	[2A	.
=167	=167	=167	=167
4F]	1d	4A]	0r
4E	.	4G	.
4F	.	4A	.
4G	.	4B	.
1E	2c	2.G	.
.	[2B	.	.
.	.	4E	.
=168	=168	=168	=168
2D	4B]	2F	0r
.	4A	.	.
2C	1A	1E	.
1BB	.	.	.
.	2G#i	2D	.
=169	=169	=169	=169
1AA	2A	2E	1.e
.	1c	1A	.
2.AA	.	.	.
.	2c	2A	2e
4AA	.	.	.
=170	=170	=170	=170
2AA	2c	2A	2e
2AA	2c	2A	2e
1D	1d	1A	1f
=171	=171	=171	=171
1C	1e	1c	1g
1F	2.f	2.c	2a
.	.	.	[2f
.	4e	4B	.
=172	=172	=172	=172
2F	4d	2A	2f]
.	4c	.	.
2E	1c	2G	2g
1D	.	4F	2a
.	.	4E	.
.	2B	2F	4g
.	.	.	4f
=173	=173	=173	=173
0C	0c	0G	0e
=174	=174	=174	=174
0r	0r	2r	2.g
.	.	2.c	.
.	.	.	4g
.	.	.	2g
.	.	4c	.
.	.	2c	2a
=175	=175	=175	=175
0r	0r	2d	2b
.	.	2e	2cc
.	.	2f	2a
.	.	2d	[2b
=176	=176	=176	=176
0r	0r	2.e	4b]
.	.	.	4a
.	.	.	4g
.	.	4d	4f
.	.	4c	2e
.	.	4B	.
.	.	2A	2cc
=177	=177	=177	=177
0r	0r	2f	2a
.	.	2d	2.b
.	.	2.e	.
.	.	.	4a
.	.	.	4g
.	.	4d	4f
=178	=178	=178	=178
0r	0r	4c	2e
.	.	4B	.
.	.	2A	2.cc
.	.	2c	.
.	.	.	4b
.	.	2d	[2a
=179	=179	=179	=179
1r	1E	1B	2a]
.	.	.	2g#i
1D	[1F	2A	2a
.	.	2A	2dd
=180	=180	=180	=180
2D	2F]	2A	2dd
2F	2D	2A	2a
1D	1F	1A	1dd
=181	=181	=181	=181
[0AA	2.E	0A	1cc
.	4D	.	.
.	2E	.	1r
.	2F	.	.
=182	=182	=182	=182
0AA]	2E	1r	1.a
.	2.A	.	.
.	.	[1A	.
.	4G	.	.
.	4F	.	2a
.	4E	.	.
=183	=183	=183	=183
1r	1F	2A]	2.cc
.	.	2A	.
.	.	.	4b
[1AA	1E	1c	4a
.	.	.	4g
.	.	.	[2a
=184	=184	=184	=184
2AA]	1r	1A	2a]
2AA	.	.	4g
.	.	.	4f
1C	2r	1G	2e
.	[2E	.	2g
=185	=185	=185	=185
1AA	2E]	2r	2c
.	2E	1c	2.e
1GG	1G	.	.
.	.	.	4d
.	.	[2B	[2d
=186	=186	=186	=186
2r	1E	2B]	2d]
1G	.	2c	2c#i
.	1D	1A	2d
2F	.	.	[2dd
=187	=187	=187	=187
1G	2r	2G	4dd]
.	.	.	4cc
.	1d	1g	2.b
1A	.	.	.
.	.	.	4a
.	2c	[2f	[2a
=188	=188	=188	=188
1B-i	1d	4f]	2a]
.	.	4e	.
.	.	1d	2g
1A	1e	.	[1a
.	.	2c#i	.
=189	=189	=189	=189
1D	1f	2d	0a]
.	.	1A	.
2.A	1e	.	.
.	.	[2e	.
4A	.	.	.
=190	=190	=190	=190
2A	0r	4e]	0r
.	.	4e	.
2E	.	2e	.
2E	.	2B	.
[2G	.	2B	.
=191	=191	=191	=191
2G]	1r	1d	0r
2F	.	.	.
1E	1e	2c	.
.	.	[2B	.
=192	=192	=192	=192
4D	2f	4B]	1r
4C	.	4A	.
4BB	2f	1A	.
4AA	.	.	.
2BB	1d	.	1b
2BB	.	2G#i	.
=193	=193	=193	=193
1AA	1c	2.A	2cc
.	.	.	2cc
.	.	4G	.
1r	2r	4F	1a
.	.	4E	.
.	[2f	2F	.
=194	=194	=194	=194
0r	2f]	1C	2g
.	1e	.	2g
.	.	1r	2.b
.	2d	.	.
.	.	.	4b
=195	=195	=195	=195
1E	2c	0r	2a
.	2B	.	2g
2F	1A	.	2a
2F	.	.	2f
=196	=196	=196	=196
1D	2r	1A	2f
.	2F	.	2d
1C	2G	2c	2.e
.	[2A	2c	.
.	.	.	4d
=197	=197	=197	=197
2r	4A]	1A	1c
.	4B	.	.
1F	2c	.	.
.	4C	2G	1r
.	4D	.	.
[2E	4E	2G	.
.	4F	.	.
=198	=198	=198	=198
2E]	2G	2.B	1r
2D	2F	.	.
.	.	4B	.
2C	2E	2A	2r
2BB	2D	2G	2b
=199	=199	=199	=199
1AA	1E	2A	2.cc
.	.	2e	.
.	.	.	4b
1r	1r	2.f	2a
.	.	.	2g
.	.	4e	.
=200	=200	=200	=200
2r	1r	2d	2a
2C	.	2c	2e
2.F	2r	2d	[1a
.	2c	2A	.
4E	.	.	.
=201	=201	=201	=201
2D	2f	2r	1a]
2C	2e	2E	.
2D	2d	2F	[1a
2AA	2c	2E	.
=202	=202	=202	=202
1.D	2d	2F	2a]
.	2A	2D	4f
.	.	.	4e
.	1d	2.F	4f
.	.	.	4g
4C	.	.	4a
4BB	.	8EL	4b
.	.	8DJ	.
=203	=203	=203	=203
2AA	2c	2E	2cc
2.D	2.d	2D	2.f
.	.	2d	.
4E	4c	.	4g
2F	4c	2c	[2a
.	8BL	.	.
.	8AJ	.	.
=204	=204	=204	=204
2E	2B	1e	4a]
.	.	.	4g
2C	2c	.	1g
1D	1A	1d	.
.	.	.	2f#i
=	=	=	=
*M3/1	*M3/1	*M3/1	*M3/1
*met(C|3)	*met(C|3)	*met(C|3)	*met(C|3)
[0.GG	0G	0d	0g
.	1r	1r	[1d
=205	=205	=205	=205
0.GG]	0G	0B	1d]
.	.	.	1d
.	1G	1B	1d
=206	=206	=206	=206
0.r	1G	1B	1B
.	1E	1G	1c
.	1F	1A	1d
=207	=207	=207	=207
0.r	1G	1B	2d
.	.	.	1d
.	2G	2B	.
.	1G	1B	2d
.	.	.	1e
.	2G	2B	.
=208	=208	=208	=208
0.r	1A	1c	1e
.	1A	1c	1f
.	1B	1d	1g
=209	=209	=209	=209
0.r	1c	1e	0a
.	0d	0f	.
.	.	.	1b
=210	=210	=210	=210
0.r	1A	1e	1.a
.	0B	0d	.
.	.	.	4g
.	.	.	4f
.	.	.	1g
=211	=211	=211	=211
0AA	1A	0e	0c
.	0A	.	.
[1AA	.	1c	1e
=212	=212	=212	=212
1AA]	1A	1c	1e
0FF	0c	0f	0a
=213	=213	=213	=213
1C	1c	1e	1g
0D	1.A	0d	0f
.	2B	.	.
=214	=214	=214	=214
0C	0c	0G	0e
1r	1r	1r	1r
=215	=215	=215	=215
1C	1G	1c	1e
1C	1G	1c	1e
1AA	1A	1c	1e
=216	=216	=216	=216
1C	0G	1c	1e
1GG	.	1B	1d
1r	1D	[1d	1r
=217	=217	=217	=217
0D	1r	1d]	0f
.	0A	1d	.
1D	.	1d	1f
=218	=218	=218	=218
1D	1A	1A	1f
1AA	1A	0c	0e
[1C	1E	.	.
=219	=219	=219	=219
1C]	0G	1G	1e
1GG	.	1B-X	1d
[1D	1D	[1A	2f
.	.	.	2e
=220	=220	=220	=220
1D]	1r	2A]	2d
.	.	2F	2c
1GG	1G	1B-i	1.d
[1AA	1E	1A	.
.	.	.	2c
=221	=221	=221	=221
1AA]	1C	1F	0c
0GG	0D	0G	.
.	.	.	1B
=	=	=	=
*M2/1	*M2/1	*M2/1	*M2/1
*met(C|)	*met(C|)	*met(C|)	*met(C|)
[0C	[0E	0G	1c
.	.	.	1r
=222	=222	=222	=222
0C]	0E]	1r	1c
.	.	1G	1g
=223	=223	=223	=223
0r	1r	1d	1a
.	1C	1e	2g
.	.	.	[2a
=224	=224	=224	=224
1GG	1G	1d	4a]
.	.	.	4g
.	.	.	1g
1D	1A	2r	.
.	.	[2d	2f#i
=225	=225	=225	=225
1E	2G	4d]	1g
.	.	4G	.
.	2G	1c	.
1D	1d	.	2r
.	.	2B	[2dd
=226	=226	=226	=226
2r	1e	2.c	4dd]
.	.	.	4g
2C	.	.	1cc
.	.	8BL	.
.	.	8AJ	.
1G	1d	2G	.
.	.	[2g	2b
=227	=227	=227	=227
1A	1c	2g]	2cc
.	.	2f#i	2a
1G	1d	1g	1b
=228	=228	=228	=228
1F	1f	0r	1a
1G	2e	.	1r
.	[2d	.	.
=229	=229	=229	=229
1B-i	2d]	0r	0r
.	4c	.	.
.	4B	.	.
2A	2c	.	.
[2G	2d	.	.
=230	=230	=230	=230
2G]	1B	0r	0r
4F	.	.	.
4E	.	.	.
2F	2A	.	.
2G	[2d	.	.
=231	=231	=231	=231
1E	2d]	1r	1r
.	2c#i	.	.
[1D	[1d	2r	2r
.	.	[2f	[2a
=232	=232	=232	=232
1D]	1d]	2f]	2a]
.	.	2f	2a
1r	1r	2d	2b
.	.	2e	2g
=233	=233	=233	=233
1D	1d	1f	1a
1E	2B	1e	1g
.	[2c	.	.
=234	=234	=234	=234
2C	4c]	0r	0r
.	4B	.	.
2D	1A	.	.
1BB	.	.	.
.	2G#i	.	.
=235	=235	=235	=235
1AA	1A	1r	1r
1A	1r	[1e	1a
=236	=236	=236	=236
1c	1A	1e]	0a
2A	1c	2e	.
2A	.	2e	.
=237	=237	=237	=237
1c	2A	1e	2a
.	2A	.	1a
1A	1c	1e	.
.	.	.	2a
=238	=238	=238	=238
2r	1A	1e	1.a
1A	.	.	.
.	2c	1e	.
2A	2c	.	2a
=239	=239	=239	=239
2A	2c	2e	2a
2A	2c	2e	2a
2A	2c	2e	2a
2A	2c	2e	2a
=240	=240	=240	=240
1E	1B	1e	1g#X
1A	1c	1f	1a
=241	=241	=241	=241
1.G	1d	2.g	1.b
.	.	8fL	.
.	.	8eJ	.
.	2B	2d	.
2E	[2c	[2e	2g
=242	=242	=242	=242
2.F	2c]	2e]	1a
.	4B	2d	.
8EL	4A	.	.
8DJ	.	.	.
4C	1c	1e	2.g
4D	.	.	.
4E	.	.	.
4F	.	.	4f
=243	=243	=243	=243
2G	2B	0r	4e
.	.	.	4d
2.A	2.c	.	2.f
4G	4B	.	4e
2E	[2B	.	[2e
=244	=244	=244	=244
1F	2B]	1r	2e]
.	2A	.	2d
[1E	2B	2r	1e
.	2c	2e	.
=245	=245	=245	=245
1E]	2B	2e	0r
.	1e	2e	.
1r	.	1f	.
.	2d	.	.
=246	=246	=246	=246
0r	1e	1e	1r
.	1r	2.A	1e
.	.	4B	.
=247	=247	=247	=247
0r	0r	4c	2e
.	.	4d	.
.	.	1e	2e
.	.	.	1f
.	.	2d	.
=248	=248	=248	=248
1E	0r	2.g	2.e
.	.	4f	4f
2E	.	2e	4g
.	.	.	4a
2E	.	2d	[2b
=249	=249	=249	=249
1F	0r	2c	2b]
.	.	4B	2a
.	.	4A	.
1E	.	1B	2a
.	.	.	2g#i
=250	=250	=250	=250
2.AA	1E	1A	1a
4BB	.	.	.
4C	2E	1r	1r
4D	.	.	.
[2E	2E	.	.
=251	=251	=251	=251
2E]	1F	0r	0r
2D	.	.	.
2.G	2.E	.	.
4F	4F	.	.
=252	=252	=252	=252
2E	4G	0r	0r
.	4A	.	.
2D	2.B	.	.
2C	.	.	.
.	4A	.	.
4BB	[2A	.	.
4AA	.	.	.
=253	=253	=253	=253
1BB	2A]	1r	1r
.	2G#i	.	.
2AA	2A	[1e	[1a
[2A	[2c	.	.
=254	=254	=254	=254
2A]	2c]	2e]	2a]
2A	2c	2f	2a
2A	2c	2e	2a
2A	2c	2f	2a
=255	=255	=255	=255
1A	1c	2e	1cc
.	.	2.f	.
[1B	2d	.	2b
.	.	4e	.
.	[2f	4d	2a
.	.	4c	.
=256	=256	=256	=256
1B]	4f]	1d	2a
.	4e	.	.
.	2d	.	2g
1A	1c	2e	[1a
.	.	[2A	.
=257	=257	=257	=257
1D	2r	2A]	1a]
.	1f	2F	.
1C	.	1G	1r
.	2e	.	.
=258	=258	=258	=258
2D	2d	1F	0r
2F	2A	.	.
2.E	2c	2.G	.
.	2B	.	.
4D	.	4F	.
=259	=259	=259	=259
2C	2A	2E	1r
2BB	2G	2D	.
2AA	1A	2E	2r
2AA	.	[2e	[2a
=260	=260	=260	=260
1A	1c	4e]	2a]
.	.	4d	.
.	.	4e	1cc
.	.	4f	.
2G	2d	1g	.
2E	2e	.	[2b
=261	=261	=261	=261
1F	2c	2f	2b]
.	4B	2d	1a
.	4A	.	.
1E	1B	1e	.
.	.	.	2g#i
=262	=262	=262	=262
1r	1A	1e	1a
[1AA	2r	2r	[1a
.	[2E	[2c	.
=263	=263	=263	=263
2AA]	2E]	2c]	2a]
2AA	2E	2c	2a
2D	2F	2d	2a
2D	2D	2d	2b
=264	=264	=264	=264
1AA	1A	1e	1cc
[1A	1r	2r	1r
.	.	[2e	.
=265	=265	=265	=265
2A]	1.c	2e]	1.a
2A	.	2e	.
1F	.	1f	.
.	2c	.	2a
=266	=266	=266	=266
1G	1B	1d	1g
1A	1A	1c	2e
.	.	.	[2f
=267	=267	=267	=267
2G	1r	2B	4f]
.	.	.	4e
2A	.	2.c	1e
1E	2G	.	.
.	.	4B	.
.	2G	[2B	4d
.	.	.	4c
=268	=268	=268	=268
1F	2F	2B]	1d
.	1A	2A	.
1E	.	1B	1e
.	2G#i	.	.
=269	=269	=269	=269
0r	4A	1.A	1r
.	4B	.	.
.	4c	.	.
.	4d	.	.
.	2e	.	[1a
.	[2c	2A	.
=270	=270	=270	=270
0r	2c]	1F	2a]
.	1d	.	2a
.	.	1G	1g
.	2B	.	.
=271	=271	=271	=271
1AA	1.c	1A	2e
.	.	.	2.f
[1C	.	2G	.
.	.	.	4e
.	4B	2A	[2e
.	4A	.	.
=272	=272	=272	=272
1C]	1G	1E	2e]
.	.	.	4d
.	.	.	4c
1BB-X	1r	1F	1d
=273	=273	=273	=273
0C	1E	0E	0e
.	[1G	.	.
=274	=274	=274	=274
1BB	1G]	0r	0r
1AA	1F	.	.
=275	=275	=275	=275
2r	0G	1B	0r
2.GG	.	.	.
.	.	[1d	.
4AA	.	.	.
4BB	.	.	.
4C	.	.	.
=276	=276	=276	=276
2.D	1F	1d]	1r
4C	.	.	.
2AA	1E	1c	1e
2C	.	.	.
=277	=277	=277	=277
0GG	2r	0d	0g
.	1B	.	.
.	4A	.	.
.	4G	.	.
=278	=278	=278	=278
1r	1A	1c	1f
2r	2.G	1B	[1g
[2G	.	.	.
.	4A	.	.
=279	=279	=279	=279
2G]	2B	1r	1g]
4F	1c	.	.
4E	.	.	.
1D	.	1A	1f
.	2F	.	.
=280	=280	=280	=280
2C	2G	0c	[0e
2.AA	1A	.	.
4BB	.	.	.
4C	4G	.	.
4D	4F	.	.
=281	=281	=281	=281
1E	1G	1B	0e]
2r	2C	[1c	.
2AA	[2c	.	.
=282	=282	=282	=282
2C	4c]	1c]	1r
.	4B	.	.
2D	1A	.	.
1E	.	1B	[1e
.	2G#i	.	.
=283	=283	=283	=283
1AA	1A	0A	1e]
1r	1D	.	1f
=284	=284	=284	=284
0r	2.E	2.G	1.g
.	4F	4A	.
.	2G	2B	.
.	[2A	[2c	2e
=285	=285	=285	=285
0AA	2A]	2c]	1e
.	1E	4B	.
.	.	4A	.
.	.	1c	1r
.	[2F	.	.
=286	=286	=286	=286
1BB-X	2F]	1d	0r
.	1G	.	.
[1C	.	[1e	.
.	2E	.	.
=287	=287	=287	=287
2C]	1E	2e]	1r
2AA	.	2c	.
1AA	2r	2c	1a
.	2A	2e	.
=288	=288	=288	=288
1r	2B	2d	1g
.	2c	2e	.
1D	2F	2f	1a
.	[2f	2F	.
=289	=289	=289	=289
1C	2f]	1G	1cc
.	2e	.	.
1D	2d	2F	2b
.	2c	2f	[2a
=290	=290	=290	=290
1E	1B	1e	2a]
.	.	.	2g#i
2.F	1A	2c	1a
.	.	4d	.
4E	.	4c	.
=291	=291	=291	=291
2D	2r	4B	0r
.	.	4A	.
2C	2E	2.A	.
1BB	2F	.	.
.	.	4G	.
.	2G	[2d	.
=292	=292	=292	=292
1AA	2.A	2d]	1e
.	.	2c	.
.	4G	.	.
1D	2A	2f	1d
.	2B	2F	.
=293	=293	=293	=293
2.C	1c	2G	1e
.	.	2.c	.
4D	.	.	.
2E	1r	.	1g
.	.	4B	.
2C	.	2e	.
=294	=294	=294	=294
2D	1r	2d	2f
2E	.	1c	1e
1F	1A	.	.
.	.	4B	2d
.	.	4A	.
=295	=295	=295	=295
1E	1G	1B	[0el
2AA	1A	1c	.
[2A	.	.	.
=296	=296	=296	=296
2A]	1c	1A	0e_
4G	.	.	.
4F	.	.	.
2G	2B	1r	.
2A	[2A	.	.
=297	=297	=297	=297
1E	2A]	1B	0e_
.	2G#i	.	.
[1AA	2.A	2c	.
.	.	[2A	.
.	4B	.	.
=298	=298	=298	=298
1AA]	2c	4A]	0e_
.	.	4B	.
.	2A	2c	.
[1El	[1Bl	[1G#Xl	.
=299	=299	=299	=299
00E]	00B]	00G#]	00e]
==	==	==	==
*-	*-	*-	*-
!!!system-decoration: [*]
!!!RDF**kern: i = editorial accidental
!!!RDF**kern: l = terminal long
!!!ENC: Benjamin Ory
!!!END: 2022/3/3
!!!EED: Benjamin Ory
!!!EEV: 2022/03/03
!!!YEC: Copyright 2022 Benjamin Ory, All Rights Reserved
!!!ONB: Translated from MusicXML on 2022/03/03
